assets/images/icon-trophy.svg

<?xml version="1.0" encoding="UTF-8"?>
<svg width="85px" height="87px" viewBox="0 0 85 87" version="1.1" xmlns="http://www.w3.org/2000/svg" xmlns:xlink="http://www.w3.org/1999/xlink">
    <!-- Generator: Sketch 45.2 (43514) - http://www.bohemiancoding.com/sketch -->
    <title>Group 3 Copy 3</title>
    <desc>Created with Sketch.</desc>
    <defs>
        <path d="M17,26.0045058 C17,11.6426138 28.6356092,2.84217094e-14 42.9959112,2.84217094e-14 L42.9959112,2.84217094e-14 C57.3530565,2.84217094e-14 68.9918224,11.6331944 68.9918224,26.0045058 L68.9918224,58.1771716 L17,58.1771716 L17,26.0045058 Z" id="path-1"></path>
    </defs>
    <g id="Page-1" stroke="none" stroke-width="1" fill="none" fill-rule="evenodd">
        <g id="Pricing-V1" transform="translate(-997.000000, -1441.000000)">
            <g id="Body" transform="translate(0.000000, 767.000000)">
                <g id="Group-20" transform="translate(926.000000, 674.000000)">
                    <g id="Group-3-Copy-3" transform="translate(71.000000, 0.000000)">
                        <path d="M28.5,77.2755102 L56.8457944,77.2755102 L56.8457944,73.3877551 C56.8457944,71.2443589 55.1025365,69.5 52.9572602,69.5 L32.3885342,69.5 C30.2378954,69.5 28.5,71.2387419 28.5,73.3877551 L28.5,77.2755102 Z" id="Rectangle-10-Copy" stroke="#4ABFB6" stroke-width="3"></path>
                        <path d="M62.577685,31.4165606 L87.4165606,31.4165606 L87.4165606,29.5287417 C87.4165606,25.8329249 84.5462683,21.5862257 81.1154531,20.2071555 L67.759905,14.8386828 C64.7489603,13.6283862 62.577685,15.0918717 62.577685,18.3322239 L62.577685,31.4165606 Z" id="Rectangle-10-Copy-5" stroke="#4ABFB6" stroke-width="3" transform="translate(74.997123, 22.919438) rotate(-270.000000) translate(-74.997123, -22.919438) "></path>
                        <path d="M-2.42231503,31.4165606 L22.4165606,31.4165606 L22.4165606,29.5287417 C22.4165606,25.8329249 19.5462683,21.5862257 16.1154531,20.2071555 L2.75990501,14.8386828 C-0.251039746,13.6283862 -2.42231503,15.0918717 -2.42231503,18.3322239 L-2.42231503,31.4165606 Z" id="Rectangle-10-Copy-6" stroke="#4ABFB6" stroke-width="3" transform="translate(9.997123, 22.919438) scale(-1, 1) rotate(-270.000000) translate(-9.997123, -22.919438) "></path>
                        <path d="M21.5,85.2755102 L65.5186916,85.2755102 L65.5186916,81.3877551 C65.5186916,79.244677 63.7734631,77.5 61.6250498,77.5 L25.3936418,77.5 C23.2415137,77.5 21.5,79.2401095 21.5,81.3877551 L21.5,85.2755102 Z" id="Rectangle-10-Copy-2" stroke="#4ABFB6" stroke-width="3"></path>
                        <path d="M37.8054766,55.5 C39.9610996,59.3724284 39.9598735,64.7927289 37.805454,68.6632653 L49.232581,68.6632653 C47.3181622,64.7664471 47.3188784,59.3955883 49.2325981,55.5 L37.8054766,55.5 Z" id="Rectangle-10-Copy-4" stroke="#4ABFB6" stroke-width="3"></path>
                        <g id="Rectangle-10-Copy-3" transform="translate(42.995911, 29.088586) rotate(-180.000000) translate(-42.995911, -29.088586) ">
                            <use fill="#FFFFFF" fill-rule="evenodd" xlink:href="#path-1"></use>
                            <path stroke="#4ABFB6" stroke-width="3" d="M18.5,56.6771716 L67.4918224,56.6771716 L67.4918224,26.0045058 C67.4918224,12.4648478 56.5278554,1.5 42.9959112,1.5 C29.4652657,1.5 18.5,12.4698111 18.5,26.0045058 L18.5,56.6771716 Z"></path>
                        </g>
                    </g>
                </g>
            </g>
        </g>
    </g>
</svg>

<svg width="85" height="87" viewBox="0 0 85 87" xmlns="http://www.w3.org/2000/svg" xmlns:xlink="http://www.w3.org/1999/xlink"><title>Group 3 Copy 3</title><defs><path d="M17 26.005C17 11.643 28.636 0 42.996 0c14.357 0 25.996 11.633 25.996 26.005v32.172H17V26.005z" id="a"/></defs><g fill="none" fill-rule="evenodd"><path d="M28.5 77.276h28.346v-3.888a3.892 3.892 0 0 0-3.889-3.888H32.39a3.885 3.885 0 0 0-3.889 3.888v3.888zM66.5 10.5v24.839h1.888c3.696 0 7.942-2.87 9.321-6.301l5.369-13.356c1.21-3.01-.253-5.182-3.494-5.182H66.5zM18.494 10.5v24.839h-1.888c-3.695 0-7.942-2.87-9.321-6.301L1.916 15.682C.706 12.672 2.17 10.5 5.41 10.5h13.084zM21.5 85.276h44.019v-3.888a3.895 3.895 0 0 0-3.894-3.888H25.394a3.89 3.89 0 0 0-3.894 3.888v3.888zM37.805 55.5c2.156 3.872 2.155 9.293 0 13.163h11.428c-1.915-3.897-1.914-9.267 0-13.163H37.805z" stroke="#4ABFB6" stroke-width="3"/><g transform="rotate(-180 42.996 29.089)"><use fill="#FFF" xlink:href="#a"/><path stroke="#4ABFB6" stroke-width="3" d="M18.5 56.677h48.992V26.005c0-13.54-10.964-24.505-24.496-24.505C29.466 1.5 18.5 12.47 18.5 26.005v30.672z"/></g></g></svg>
